!!!OTL: ICH BIN KUCKUK UND BLEIB KUCKUK
!!!ARE: Europa, Mitteleuropa, Deutschland, Schlesien, Bresalau; Gotha
!!!SCT: E0667
!!!YEM: Copyright 1995, estate of Helmut Schaffrath.
**kern
*ICvox
*Ivox
*M6/8
*k[f#]
*G:
{8dd
=1
4dd
8b
4b
8dd
=2
4cc
8a
4a}
{8cc
=3
8.b
16cc
8dd
8.dd
16cc
8b
=4
4.a
4d}
{8dd
=5
4dd
8b
4b
8dd
=6
4cc
8a
4a}
{8cc
=7
8.b
16a
8g
8.a
16g
8f#
=8
4.g
4g}
{8d
=9
4g
8b
8.b
16a
8g
=10
4a
8cc
8.cc
16b}
{8a
=11
8.b
16cc
8dd
8.dd
16cc
8b
=12
4.a
4d}
{8dd
=13
4dd
8b
4b
8dd
=14
4cc
8a
4a}
{8cc
=15
8.b
16a
8g
8.a
16g
8f#
=16
4.g
4g}
==
!!!AGN: Liebes - Lied, Schaefer - Lied
!!!ONB: ESAC (Essen Associative Code) Database: ERK2
!!!AMT: compound duple
!!!AIN: vox
!!!EED: Helmut Schaffrath
!!!EEV: 1.0
*-
